X:1
T:Harfenspiel
C:Jens Wollschlger
O:Germany
M:4/4
L:1/8
K:Dmin
|:FDAc Ad3|ADAc AGAF|EDAc Ad2A|FGEC GECG|EDAc Ad3|FDAc AGAF|EDAc defe|dc2 d2 d2A:|
|:def3ed|Adef dAFD|Adef efga|gfde3d|c2GF EGcG|eGcG EGcG|eGcG EGcd|egfe f2d2|1dA:|2d2A|
